devices/scalable/media-optical-dvd-video.svg

<svg width="48" version="1.1" xmlns="http://www.w3.org/2000/svg" height="48" xmlns:xlink="http://www.w3.org/1999/xlink">
<defs id="defs17">
<clipPath id="clipPath4232" clipPathUnits="userSpaceOnUse">
<path style="opacity:.79;fill:#666;stroke:none;stroke-linejoin:round;stroke-width:7.2" id="path4234" d="m 372.8438,260.9375 c -117.497,0 -212.844,95.3466 -212.844,212.844 0,117.497 95.3466,212.875 212.844,212.875 117.497,0 212.875,-95.3778 212.875,-212.875 0,-117.497 -95.3779,-212.844 -212.875,-212.844 z  m 0,160 c 29.1771,0 52.875,23.6666 52.875,52.8438 0,29.1771 -23.6979,52.875 -52.875,52.875 -29.1771,0 -52.8438,-23.6979 -52.8438,-52.875 0,-29.1771 23.6666,-52.8438 52.8438,-52.8438 z "/>
</clipPath>
<clipPath id="clipPath4244-5" clipPathUnits="userSpaceOnUse">
<path style="opacity:.79;fill:#666;stroke:none;stroke-linejoin:round;stroke-width:7.2" id="path4246-3" d="m 372.8438,260.9375 c -117.497,0 -212.844,95.3466 -212.844,212.844 0,117.497 95.3466,212.875 212.844,212.875 117.497,0 212.875,-95.3778 212.875,-212.875 0,-117.497 -95.3779,-212.844 -212.875,-212.844 z  m 0,160 c 29.1771,0 52.875,23.6666 52.875,52.8438 0,29.1771 -23.6979,52.875 -52.875,52.875 -29.1771,0 -52.8438,-23.6979 -52.8438,-52.875 0,-29.1771 23.6666,-52.8438 52.8438,-52.8438 z "/>
</clipPath>
<clipPath id="clipPath3987" clipPathUnits="userSpaceOnUse">
<path style="fill:#0266c4;stroke:none;fill-opacity:.677" id="path3989" d="m 233.7182,-86.1948 c -63.3459,0 -114.702,51.3559 -114.702,114.702 0,63.3459 51.3559,114.702 114.702,114.702 63.3459,0 114.702,-51.3559 114.702,-114.702 0,-63.3459 -51.3559,-114.702 -114.702,-114.702 z  m 0,69.063 c 25.2057,0 45.6389,20.4332 45.6389,45.6389 0,25.2057 -20.4332,45.6389 -45.6389,45.6389 -25.2057,0 -45.6388,-20.4332 -45.6388,-45.6389 0,-25.2057 20.4332,-45.6389 45.6388,-45.6389 z "/>
</clipPath>
<clipPath id="clipPath4236" clipPathUnits="userSpaceOnUse">
<path style="opacity:.79;fill:#666;stroke:none;stroke-linejoin:round;stroke-width:7.2" id="path4238" d="m 372.8438,260.9375 c -117.497,0 -212.844,95.3466 -212.844,212.844 0,117.497 95.3466,212.875 212.844,212.875 117.497,0 212.875,-95.3778 212.875,-212.875 0,-117.497 -95.3779,-212.844 -212.875,-212.844 z  m 0,160 c 29.1771,0 52.875,23.6666 52.875,52.8438 0,29.1771 -23.6979,52.875 -52.875,52.875 -29.1771,0 -52.8438,-23.6979 -52.8438,-52.875 0,-29.1771 23.6666,-52.8438 52.8438,-52.8438 z "/>
</clipPath>
<clipPath id="clipPath3613">
<rect width="84" x="6" y="6" rx="6" ry="6" height="84" style="fill:#fff;stroke:none" id="rect3615"/>
</clipPath>
<clipPath id="clipPath4232-3" clipPathUnits="userSpaceOnUse">
<path style="opacity:.79;fill:#666;stroke:none;stroke-linejoin:round;stroke-width:7.2" id="path4234-6" d="m 372.8438,260.9375 c -117.497,0 -212.844,95.3466 -212.844,212.844 0,117.497 95.3466,212.875 212.844,212.875 117.497,0 212.875,-95.3778 212.875,-212.875 0,-117.497 -95.3779,-212.844 -212.875,-212.844 z  m 0,160 c 29.1771,0 52.875,23.6666 52.875,52.8438 0,29.1771 -23.6979,52.875 -52.875,52.875 -29.1771,0 -52.8438,-23.6979 -52.8438,-52.875 0,-29.1771 23.6666,-52.8438 52.8438,-52.8438 z "/>
</clipPath>
<clipPath id="clipPath4240-8" clipPathUnits="userSpaceOnUse">
<path style="opacity:.79;fill:#666;stroke:none;stroke-linejoin:round;stroke-width:7.2" id="path4242-6" d="m 372.8438,260.9375 c -117.497,0 -212.844,95.3466 -212.844,212.844 0,117.497 95.3466,212.875 212.844,212.875 117.497,0 212.875,-95.3778 212.875,-212.875 0,-117.497 -95.3779,-212.844 -212.875,-212.844 z  m 0,160 c 29.1771,0 52.875,23.6666 52.875,52.8438 0,29.1771 -23.6979,52.875 -52.875,52.875 -29.1771,0 -52.8438,-23.6979 -52.8438,-52.875 0,-29.1771 23.6666,-52.8438 52.8438,-52.8438 z "/>
</clipPath>
<clipPath id="clipPath4248-9" clipPathUnits="userSpaceOnUse">
<path style="opacity:.79;fill:#666;stroke:none;stroke-linejoin:round;stroke-width:7.2" id="path4250-5" d="m 372.8438,260.9375 c -117.497,0 -212.844,95.3466 -212.844,212.844 0,117.497 95.3466,212.875 212.844,212.875 117.497,0 212.875,-95.3778 212.875,-212.875 0,-117.497 -95.3779,-212.844 -212.875,-212.844 z  m 0,160 c 29.1771,0 52.875,23.6666 52.875,52.8438 0,29.1771 -23.6979,52.875 -52.875,52.875 -29.1771,0 -52.8438,-23.6979 -52.8438,-52.875 0,-29.1771 23.6666,-52.8438 52.8438,-52.8438 z "/>
</clipPath>
<clipPath id="clipPath4240" clipPathUnits="userSpaceOnUse">
<path style="opacity:.79;fill:#666;stroke:none;stroke-linejoin:round;stroke-width:7.2" id="path4242" d="m 372.8438,260.9375 c -117.497,0 -212.844,95.3466 -212.844,212.844 0,117.497 95.3466,212.875 212.844,212.875 117.497,0 212.875,-95.3778 212.875,-212.875 0,-117.497 -95.3779,-212.844 -212.875,-212.844 z  m 0,160 c 29.1771,0 52.875,23.6666 52.875,52.8438 0,29.1771 -23.6979,52.875 -52.875,52.875 -29.1771,0 -52.8438,-23.6979 -52.8438,-52.875 0,-29.1771 23.6666,-52.8438 52.8438,-52.8438 z "/>
</clipPath>
<clipPath id="clipPath4236-0" clipPathUnits="userSpaceOnUse">
<path style="opacity:.79;fill:#666;stroke:none;stroke-linejoin:round;stroke-width:7.2" id="path4238-3" d="m 372.8438,260.9375 c -117.497,0 -212.844,95.3466 -212.844,212.844 0,117.497 95.3466,212.875 212.844,212.875 117.497,0 212.875,-95.3778 212.875,-212.875 0,-117.497 -95.3779,-212.844 -212.875,-212.844 z  m 0,160 c 29.1771,0 52.875,23.6666 52.875,52.8438 0,29.1771 -23.6979,52.875 -52.875,52.875 -29.1771,0 -52.8438,-23.6979 -52.8438,-52.875 0,-29.1771 23.6666,-52.8438 52.8438,-52.8438 z "/>
</clipPath>
<clipPath id="clipPath4244" clipPathUnits="userSpaceOnUse">
<path style="opacity:.79;fill:#666;stroke:none;stroke-linejoin:round;stroke-width:7.2" id="path4246" d="m 372.8438,260.9375 c -117.497,0 -212.844,95.3466 -212.844,212.844 0,117.497 95.3466,212.875 212.844,212.875 117.497,0 212.875,-95.3778 212.875,-212.875 0,-117.497 -95.3779,-212.844 -212.875,-212.844 z  m 0,160 c 29.1771,0 52.875,23.6666 52.875,52.8438 0,29.1771 -23.6979,52.875 -52.875,52.875 -29.1771,0 -52.8438,-23.6979 -52.8438,-52.875 0,-29.1771 23.6666,-52.8438 52.8438,-52.8438 z "/>
</clipPath>
<clipPath id="clipPath4248" clipPathUnits="userSpaceOnUse">
<path style="opacity:.79;fill:#666;stroke:none;stroke-linejoin:round;stroke-width:7.2" id="path4250" d="m 372.8438,260.9375 c -117.497,0 -212.844,95.3466 -212.844,212.844 0,117.497 95.3466,212.875 212.844,212.875 117.497,0 212.875,-95.3778 212.875,-212.875 0,-117.497 -95.3779,-212.844 -212.875,-212.844 z  m 0,160 c 29.1771,0 52.875,23.6666 52.875,52.8438 0,29.1771 -23.6979,52.875 -52.875,52.875 -29.1771,0 -52.8438,-23.6979 -52.8438,-52.875 0,-29.1771 23.6666,-52.8438 52.8438,-52.8438 z "/>
</clipPath>
<clipPath id="clipPath4100" clipPathUnits="userSpaceOnUse">
<path style="opacity:.46;stroke:none" id="path4102" d="m 664.3347,-117.7067 0,281.0887 282.3088,0 0,-281.0887 -282.3088,0 z  m 140.7691,29.4767 c 64.0792,0 115.98,51.9664 115.98,116.045 0,64.0782 -51.9012,116.045 -115.98,116.045 -64.0792,0 -116.045,-51.9654 -116.045,-116.045 0,-64.0791 51.9654,-116.045 116.045,-116.045 z  m -.3211,100.8246 c -8.54055,0 -15.4769,6.93509 -15.4769,15.4769 0,8.54279 6.93634,15.4769 15.4769,15.4769 8.54056,0 15.4769,-6.93411 15.4769,-15.4769 0,-8.54181 -6.93634,-15.4769 -15.4769,-15.4769 z "/>
</clipPath>
<linearGradient id="linearGradient3767">
<stop offset="0" style="stop-color:#3585cf" id="stop3769"/>
<stop offset="1" style="stop-color:#0062a7" id="stop3771"/>
</linearGradient>
<linearGradient gradientTransform="matrix(0.31654208,0,0,0.31654208,18.828271,8.7555366)" id="linearGradient3780" xlink:href="#linearGradient3767" y1="6" y2="90" x1="5.9998293" x2="5.9998293" gradientUnits="userSpaceOnUse"/>
</defs>
<g style="fill-rule:evenodd;stroke:#003bc3;stroke-linecap:square;stroke-width:0" id="g44">
<g style="stroke-miterlimit:2" id="g46">
<path style="opacity:.6" id="path4157" d="m 24,2 c -12.7071,0 -23,10.2929 -23,23 0,12.7072 10.2929,23 23,23 12.7072,0 23,-10.2928 23,-23 0,-12.7071 -10.2928,-23 -23,-23 Z  m 0,19.2266 c 2.09091,0 3.77332,1.68236 3.77332,3.77347 0,2.09091 -1.68241,3.77332 -3.77332,3.77332 -2.09111,0 -3.77345,-1.68241 -3.77345,-3.77332 0,-2.09111 1.68236,-3.77347 3.77345,-3.77347 z "/>
<path style="fill:#ecf0f1" id="shape011" d="m 24,1 c -12.7071,0 -23,10.2929 -23,23 1.55431e-15,12.7072 10.2929,23 23,23 12.7072,0 23,-10.2928 23,-23 0,-12.7071 -10.2928,-23 -23,-23 Z  m 0,19.2266 c 2.09091,0 3.77332,1.68236 3.77332,3.77347 0,2.09091 -1.68241,3.77332 -3.77332,3.77332 -2.09111,0 -3.77345,-1.68241 -3.77345,-3.77332 0,-2.09111 1.68236,-3.77347 3.77345,-3.77347 z "/>
<path style="fill:#b2b2b2" id="shape11" d="m 23.9891,15.0741 c -4.91681,0 -8.91488,3.99807 -8.91488,8.91489 0,4.9167 3.99807,8.91489 8.91488,8.91489 4.9167,0 8.91489,-3.99819 8.91489,-8.91489 0,-4.91681 -3.99819,-8.91488 -8.91489,-8.91488 z  m 0,5.0785 c 2.12591,0 3.83626,1.7104 3.83626,3.83633 0,2.12591 -1.71035,3.83626 -3.83626,3.83626 -2.12593,0 -3.83633,-1.71035 -3.83633,-3.83626 0,-2.12593 1.7104,-3.83633 3.83633,-3.83633 z "/>
</g>
<path style="fill:#91a8be;stroke-linejoin:bevel" id="shape1" d="m 18.2212,15.3972 c -1.61128,1.13621 -2.06871,1.86205 -2.70549,2.66951 l -9.4986,-6.8861 c 1.43564,-2.26058 3.13184,-4.23102 5.46983,-5.5817 Z "/>
</g>
<path style="fill:url(#linearGradient3780);stroke:none" id="path3823" d="m 30.3053,10.6548 c -1.85294,0 -1.89925,0.04631 -1.89925,1.89925 l 0,22.791 c 0,1.89509 -0.03798,1.89925 1.89925,1.89925 l 10.7072,0 c 1.89509,0 1.89925,-0.08846 1.89925,-1.89925 l 0,-22.791 c 0,-1.89509 -0.08846,-1.89925 -1.89925,-1.89925 z m -0.6331,1.3849 3.4787,0 0,3.3435 -3.4787,0 z m 8.4947,0 3.4787,0 0,3.3435 -3.4787,0 z m -8.4947,6.6869 3.4787,0 0,3.3435 -3.4787,0 z m 8.4947,0 3.4787,0 0,3.3435 -3.4787,0 z m -8.4947,6.6869 3.4787,0 0,3.3435 -3.4787,0 z m 8.4947,0 3.4787,0 0,3.3435 -3.4787,0 z m -8.4947,6.6869 3.4787,0 0,3.3435 -3.4787,0 z m 8.4947,0 3.4787,0 0,3.3435 -3.4787,0 z"/>
</svg>

<svg width="48" version="1.1" xmlns="http://www.w3.org/2000/svg" height="48" xmlns:xlink="http://www.w3.org/1999/xlink">
<defs>
<linearGradient id="linearGradient3767">
<stop offset="0" style="stop-color:#3585cf"/>
<stop offset="1" style="stop-color:#0062a7"/>
</linearGradient>
<linearGradient gradientTransform="matrix(0.31654208,0,0,0.31654208,18.828271,8.7555366)" id="linearGradient3780" xlink:href="#linearGradient3767" y1="6" y2="90" x1="6" x2="6" gradientUnits="userSpaceOnUse"/>
</defs>
<path style="opacity:.6" d="M 24,2 C 11.2929,2 1,12.2929 1,25 1,37.7072 11.2929,48 24,48 36.7072,48 47,37.7072 47,25 47,12.2929 36.7072,2 24,2 Z m 0,19.2266 c 2.09091,0 3.77332,1.68236 3.77332,3.77347 0,2.09091 -1.68241,3.77332 -3.77332,3.77332 -2.09111,0 -3.77345,-1.68241 -3.77345,-3.77332 0,-2.09111 1.68236,-3.77347 3.77345,-3.77347 z"/>
<path style="fill:#ecf0f1" d="M 24,1 C 11.2929,1 1,11.2929 1,24 1,36.7072 11.2929,47 24,47 36.7072,47 47,36.7072 47,24 47,11.2929 36.7072,1 24,1 Z m 0,19.2266 c 2.09091,0 3.77332,1.68236 3.77332,3.77347 0,2.09091 -1.68241,3.77332 -3.77332,3.77332 -2.09111,0 -3.77345,-1.68241 -3.77345,-3.77332 0,-2.09111 1.68236,-3.77347 3.77345,-3.77347 z"/>
<path style="fill:#b2b2b2" d="m 23.9891,15.0741 c -4.91681,0 -8.91488,3.99807 -8.91488,8.91489 0,4.9167 3.99807,8.91489 8.91488,8.91489 4.9167,0 8.91489,-3.99819 8.91489,-8.91489 0,-4.91681 -3.99819,-8.91488 -8.91489,-8.91488 z m 0,5.0785 c 2.12591,0 3.83626,1.7104 3.83626,3.83633 0,2.12591 -1.71035,3.83626 -3.83626,3.83626 -2.12593,0 -3.83633,-1.71035 -3.83633,-3.83626 0,-2.12593 1.7104,-3.83633 3.83633,-3.83633 z"/>
<g style="fill:#91a8be">
<path style="opacity:.6" d="m 29.7579,32.5719 c 1.56411,-1.09124 2.00815,-1.78833 2.62629,-2.56382 l 9.2206,6.6135 c -1.39363,2.17107 -3.04015,4.06349 -5.3097,5.36073 z"/>
<path style="opacity:.6" d="m 18.2212,15.3972 c -1.61128,1.13621 -2.06871,1.86205 -2.70549,2.66951 l -9.4986,-6.8861 C 7.45275,8.92003 9.14895,6.94959 11.48694,5.59891 Z"/>
</g>
<path style="fill:url(#linearGradient3780)" d="m 30.3053,10.6548 c -1.85294,0 -1.89925,0.04631 -1.89925,1.89925 l 0,22.791 c 0,1.89509 -0.03798,1.89925 1.89925,1.89925 l 10.7072,0 c 1.89509,0 1.89925,-0.08846 1.89925,-1.89925 l 0,-22.791 c 0,-1.89509 -0.08846,-1.89925 -1.89925,-1.89925 z m -0.6331,1.3849 3.4787,0 0,3.3435 -3.4787,0 z m 8.4947,0 3.4787,0 0,3.3435 -3.4787,0 z m -8.4947,6.6869 3.4787,0 0,3.3435 -3.4787,0 z m 8.4947,0 3.4787,0 0,3.3435 -3.4787,0 z m -8.4947,6.6869 3.4787,0 0,3.3435 -3.4787,0 z m 8.4947,0 3.4787,0 0,3.3435 -3.4787,0 z m -8.4947,6.6869 3.4787,0 0,3.3435 -3.4787,0 z m 8.4947,0 3.4787,0 0,3.3435 -3.4787,0 z"/>
</svg>
